X:622
T: Zoule yipuo changyipuo
N: C2141
O: China,Hubei Enshi
S: I, 383]
R: Xiaodiao, Gege qima kanrenjia diao]
M: 2/4
L: 1/16
K: C
d2d2e2d2 | c6A2 | d2d2e2d2 | c8 |
A2A4c2 | A2G2D2E2 | G2G4A2 | G8 |
E2G2E2G2 | A4d2B2 | A8 | d6e2 | G6A2 | c8 |
G2G4A2 | G4D2E2 | G2G4A2 | c2Acd2A2 | G8

@@@ Tune index: 7177
